X: 127
T:Scotch Tune,A. HA.126
T:Friday Night,aka. HA.126
T:Nowill Hills,aka. HA.126
M:C
L:1/8
Q:180
S:Henry Atkinson's original MS,Hartburn,N'umberland,1694.
O:England
A:Hartburn,Northumberland
N:PLFD ed 11(1701) #439..Aka Love Neglected.Peggy In Devotion...CGP
H:1/8
Z:vmp.Chris Partington.Jan.2004
K:D
F>E|D2F2A2d2|A4F4|G3A BAGF|EDEF E2FE|!
D2F2A2d2|A4f4|(ef)(ec) (Bc)(BA)|A6||!
c>B|A2c2e2a2|e4c4|d3e fedc|BABc B2cB|!
A2d2 (AB)(AF)|A4B4|(AB)(AF) (EF)(ED)|D6|]
